X:1244
T:The Mount in Lark
M:C|
L:1/8
R:Reel
B:O'Neill's 1244
N:No.2
N:Collected by Delaney
Z:Transcribed by Trish O'Neil
K:G
AG A3GFG AGFD|DG A3GFG AdcA|AG A3GFG AGFD|FEFG AdcA :|
dg 3ggg ag 3ggg|dggg fdcA|dg 3ggg ag 3ggg|dcde fdcA|
dg 3ggg ag 3ggg|dggef2fg|afge fdec|dcde fdcA|]
